X:1
T:Creator Alme
T:Creator Alme
T:Oliver Hayes
C:Oliver Hayes
%%score [ 1 2 3 4 ]
L:1/8
Q:1/4=120
M:none
K:Eb
V:1 treble nm="Soprano" snm="S"
V:2 treble nm="Alto" snm="A"
V:3 treble-8 nm="Tenor" snm="T"
V:4 bass nm="Bass" snm="B"
V:1
 z17 | z17 | z17 | z17 ||[M:4/2] B8 B4 e4 | c6 c2 A4 c4 | d6 e2 f6 f2 | f8 c8 | _d4 c4 A6 B2 | %9
w: ||||2.Qui dae- *|* mo- nis ne|frau- * * di-|bus, pe-|* * ri- ret|
 c6 c2 d4 B4 | c12 z4 | z16 | z8 z4 c4 | B8 f4 e2 d2 | c2 B2 B4 B6 B2 | c16 |] z17 | z17 | z17 | %19
w: or- bis im- pe-|tu,||mun-|di me- * *|de- * lam fa- ctus|est.||||
 z17 ||[M:4/2] B8 B4 e4 | c8 A4 c4 | d6 e2 f6 f2 | f8 c8 | _d4 c4 A6 B2 | c4 c4 d4 B4 | c12 z4 | %27
w: |4.Cu- jus po-|te- stas _|glo- * * ri-|ae, no-|* * men- que|cum pri- mun so-|nat,|
 z16 | z8 z4 c4 | B8 f4 e2 d2 | c2 B2 B4 B6 B2 | c16 |] z17 | z17 | z17 | z17 ||[M:4/2] B12 e4 | %37
w: |tre-|men- te cur- *|van- * * tur ge-|nu.|||||6.Vir- tus,|
 c8 A4 c4 | d6 e2 f6 f2 | f8 c8 | _d4 c4 A6 B2 | c8 d4 B4 | c12 z4 | z16 | z8 z4 c4 | B8 f4 e2 d2 | %46
w: ho- nor, laus,|glo- * * ri-|a, De-|o Pa- tri cum|Fi- * li-|o,||in|sae- * cu- *|
 c2 B2 B4 B6 B2 | c16 || d8 B8 | c16 |] %50
w: lo- * rum sae- cu-|la.|A- *|men.|
V:2
 z17 | z17 | z17 | z17 ||[M:4/2] G8 E4 G4 | E6 E2 F4 G4 | F4 F4 A8 | F6 D2 C4 F4 | F4 E4 F4 _D4 | %9
w: ||||2.Qui dae- *|* mo- nis ne|frau- di- bus,|pe- * ri- ret,|pe- * ri- ret|
 A2 G2 E2 F2 F6 D2 | C2 D2 E2 F2 C4 F4 | A6 G2 F2 E2 F2 G2 | A4 F4 G8 | F8 A2 G2 E4 | F6 F2 G6 F2 | %15
w: or- * bis _ im- *|* * pe- * tu, a-|mo- ris a- * ctus _|lan- gui- di,|mun- di _ me-|de- lam fa- ctus|
 A16 |] z17 | z17 | z17 | z17 ||[M:4/2] G8 E4 G4 | E8 F4 G4 | F4 F4 A8 | F6 D2 C4 F4 | %24
w: est.|||||4.Cu- jus po-|te- stas _|glo- ri- ae,|no- * men- que,|
 F4 E4 F4 _D4 | A2 G2 E2 F2 F6 D2 | C2 D2 E2 F2 C4 F4 | A6 G2 F2 E2 F2 G2 | A4 F4 G6 G2 | %29
w: no- * men- que|cum _ pri- * * *|mum _ so- * nat, et|cae- li- tes _ et _|in- fe- ri, tre-|
 F8 A2 G2 E4 | F6 F2 G6 F2 | A16 |] z17 | z17 | z17 | z17 ||[M:4/2] G8 E4 G4 | E8 F4 G4 | %38
w: men- te _ cur-|van- tur ge- *|nu.|||||6.Vir- tus, ho-|nor, laus, _|
 F4 F4 A8 | F4 D4 C4 F4 | F4 E4 F4 _D4 | A2 G2 E2 F2 F6 D2 | C2 D2 E2 F2 C4 F4 | %43
w: glo- ri- a,|De- * o, _|Pa- * tri cum|Fi- * * * * *|li- * * * o, san-|
 A6 G2 F2 E2 F2 G2 | A4 F4 G6 G2 | F8 A2 G2 E4 | F6 F2 G6 F2 | A16 || D8 F8 | A16 |] %50
w: cto si- mul _ pa- *|ra- cli- to, in|sae- * * cu-|lo- rum sae- cu-|la.|A- *|men.|
V:3
 !stemless!G2 !stemless!E2 !stemless!G2 !stemless!B2 !stemless!B2 !stemless!c2 !stemless!A2 !stemless!B3 | %1
w: 1.Cre- a- tor al- me si- de- rum,|
 !stemless!B2 !stemless!c2 !stemless!A2 !stemless!B2 !stemless!A2 !stemless!G2 !stemless!F2 !stemless!G3 | %2
w: ae- ter- na lux cre- den- ti- um,|
 !stemless!B2 !stemless!A2 !stemless!F2 !stemless!G2 !stemless!A2 !stemless!G2 !stemless!F2 !stemless!E3 | %3
w: Je- su re- dem- ptor om- ni- um,|
 !stemless!E2 !stemless!G2 !stemless!A2 !stemless!B2 !stemless!A2 !stemless!G2 !stemless!F2 !stemless!G3 || %4
w: in- ten- de vo- tis sup- pli- cum.|
[M:4/2] e8 B8 | A2 B2 c4 c6 e2 | d4 B4 c8 | d2 c2 B4 A2 B2 c2 B2 | A2 B2 c4 _d6 f2 | e4 c4 B6 B2 | %10
w: 2.Qui dae-|* * mo- nis ne|frau- di- bus,|pe- * * ri- * * ret,|pe- * * ri- ret|or- bis im- pe-|
 A12 c4 | f4 c4 d2 c2 B4 | c6 c2 e8 | B2 c2 d2 e2 c6 c2 | d6 d2 e4 d4 | c16 |] %16
w: tu, a|mo- ris a- * ctus|lan- gui- di,|mun- * * * di me-|de- lam fa- ctus|est.|
 !stemless!G2 !stemless!E2 !stemless!G2 !stemless!B2 !stemless!B2 !stemless!c2 !stemless!A2 !stemless!B3 | %17
w: 3.Com- mu- ne qui mun- di ne- fas,|
 !stemless!B2 !stemless!c2 !stemless!A2 !stemless!B2 !stemless!A2 !stemless!G2 !stemless!F2 !stemless!G3 | %18
w: ut ex- pi- a- res ad cru- cem,|
 !stemless!B2 !stemless!A2 !stemless!F2 !stemless!G2 !stemless!A2 !stemless!G2 !stemless!F2 !stemless!E3 | %19
w: E vir- gi- nis sa- cra- ri- o,|
 !stemless!E2 !stemless!G2 !stemless!A2 !stemless!B2 !stemless!A2 !stemless!G2 !stemless!F2 !stemless!G3 || %20
w: in- tac- ta pro- dis vic- ti- ma.|
[M:4/2] e8 B8 | A2 B2 c4 c6 e2 | d4 B4 c8 | d2 c2 B4 A2 B2 c2 B2 | A2 B2 c4 _d6 f2 | e4 c4 B8 | %26
w: 4.Cu- jus|po- * * te- stas|glo- ri- ae,|no- * * men- * que _|cum _ _ pri- *|* mum so-|
 A12 c4 | f4 c4 d2 c2 B4 | c6 c2 e6 e2 | B2 c2 d2 e2 c6 c2 | d6 d2 e4 d4 | c16 |] %32
w: nat, et|cae- li- tes _ et|in- fe- ri, tre-|men- * * * te cur-|van- tur ge- *|nur.|
 !stemless!G2 !stemless!E2 !stemless!G2 !stemless!B2 !stemless!B2 !stemless!c2 !stemless!A2 !stemless!B3 | %33
w: 5.Te de- pre- ca- mur ul- ti- mae,|
 !stemless!B2 !stemless!c2 !stemless!A2 !stemless!B2 !stemless!A2 !stemless!G2 !stemless!F2 !stemless!G3 | %34
w: ma- gnum di- e- i ju- di- cem,|
 !stemless!B2 !stemless!A2 !stemless!F2 !stemless!G2 !stemless!A2 !stemless!G2 !stemless!F2 !stemless!E3 | %35
w: al- mis su- per- nae gra- ti- ae,|
 !stemless!E2 !stemless!G2 !stemless!A2 !stemless!B2 !stemless!A2 !stemless!G2 !stemless!F2 !stemless!G3 || %36
w: de- fen- de nos ab ho- sti- bus.|
[M:4/2] e8 B8 | A2 B2 c4 c6 e2 | d4 B4 c8 | d2 c2 B4 A2 B2 c2 B2 | A2 B2 c4 _d6 f2 | e4 c4 B6 B2 | %42
w: 6.Vir- tus|ho- * nor, laus, _|glo- ri- a,|De- * * o, _ _ _|Pa- * * tri cum|Fi- * * li-|
 A12 c4 | f4 c4 d2 c2 B4 | c6 c2 e6 e2 | B2 c2 d2 e2 c4 c4 | d6 d2 e4 d4 | c16 || F8 B8 | c16 |] %50
w: o, san-|cto si- mul _ pa-|ra- cli- to, in|sae- * * * * cu-|lo- rum sae- cu-|la.|A- *|men.-|
V:4
 z17 | z17 | z17 | z17 ||[M:4/2] E,8 G,4 E,4 | A,6 G,2 F,4 E,4 | B,,2 C,2 D,4 F,8 | B,8 F,4 A,4 | %8
w: ||||2.Qui dae- *|* mo- nis ne|frau- * di- bus,|pe- ri- ret|
 _D,4 A,,4 D,2 E,2 F,2 G,2 | A,6 A,2 B,4 B,,4 | F,12 A,4 | C4 F,4 B,4 D,4 | F,2 G,2 A,2 B,2 C8 | %13
w: or- * * * * *|* bis im- pe-|tu, a|mo- ris a- ctus|lan- * * gui- di,|
 D4 B,4 F,4 A,4 | B,4 A,2 G,2 E,4 B,,4 | F,16 |] z17 | z17 | z17 | z17 ||[M:4/2] E,8 G,4 E,4 | %21
w: mun- * di me-|de- lam _ fa- ctus|est.|||||4.Cu- jus po-|
 A,6 G,2 F,4 E,4 | B,,2 C,2 D,4 F,8 | B,8 F,4 A,4 | _D,4 A,,4 D,2 E,2 F,2 G,2 | A,8 B,4 B,,4 | %26
w: te- * stas _|glo- * ri- ae,|no- men- que,|cum _ pri- * * *|* mum so-|
 F,12 A,4 | C4 F,4 B,4 D,4 | F,2 G,2 A,2 B,2 C6 C2 | D4 B,4 F,4 A,4 | B,4 A,2 G,2 E,4 B,,4 | %31
w: nat, et|cae- li- tes et|in- * * fe- ri, tre-|men- * te cur-|van- * * tur ge-|
 F,16 |] z17 | z17 | z17 | z17 ||[M:4/2] E,8 G,4 E,4 | A,6 G,2 F,4 E,4 | B,,2 C,2 D,4 F,8 | %39
w: nu.|||||6.Vir- * tus,|ho- * nor, laus,|glo- * ri- a,|
 B,8 F,4 A,4 | _D,4 A,,4 D,2 E,2 F,2 G,2 | A,6 A,2 B,4 B,,4 | F,12 A,4 | C4 F,4 B,4 D,4 | %44
w: De- * o,|Pa- * * * * *|tri cum Fi- li-|o, san-|cto si- mul pa-|
 F,2 G,2 A,2 B,2 C6 C2 | D4 B,4 F,4 A,4 | B,4 A,2 G,2 E,4 B,,4 | F,16 || B,,8 D,6 E,2 | F,16 |] %50
w: ra- * * cli- to, in|sae- cu- lo- rum|sae- * * * cu-|la.|A- * *|men.|

